**kern	**kern
*part1	*part1
*staff2	*staff1
*I"Piano	*
*clefF4	*clefG2
*k[f#c#]	*k[f#c#]
=1	=1
4D	8aL
.	8g
4E	8f#
.	8BJ 8e
=	=
*	*^
2F#	8c#L	4B
.	8f#J	.
.	8c#L	4A#X
.	8f#J	.
*	*v	*v
=	=
4F#	4An 4c# 4f#
4AA	4A 4c# 4g
=	=
8qDD/	.
2DD [2D	8dL 8f#
.	8A<
.	8f# 8a
.	8AJ<
=	=
2D]	8gL 8b
.	8A<
.	8f# 8a
.	8gJ 8b
=	=
8qDD/	.
[2D	8f#L 8a
.	8A<
.	8d 8f#
.	8AJ<
=	=
2D]	8f#L 8a
.	8A<
.	8d 8f#
.	8AJ<
=	=
*-	*-
!!!system-decoration: {(s1,s2)}
!!!RDF**kern: < = below
